assets/icons/utility/system_and_global_variable.svg

<?xml version="1.0"?><svg xmlns="http://www.w3.org/2000/svg" width="52" height="52" viewBox="0 0 52 52"><path fill="#fff" d="m25 46.5c0-3 1.4-5.2 3.4-6.5v-3c-1-0.7-1.8-1.8-2.2-3-0.4-1.7 0.2-3.6 1.2-5 0.2-0.3 0.6-0.6 0.9-1 0.3-0.3 0.7-0.6 1.1-0.7 2.1-1.1 4.5-1.9 6.9-1.9 2.2 0 4.1 0.9 5.4 2.2 1.9-1.9 3.9-2.3 5.1-2.3 1.1 0 2.2 0.2 3.1 0.7v-0.2c0.1-13-10.7-23.8-23.9-23.8s-24 10.8-24 24 10.7 24 23.8 24c-0.5-1-0.8-2.1-0.8-3.5z m20-22.9h-6.3c-0.2-5.6-1.5-10.6-3.4-14.4 5.3 3 8.9 8.3 9.7 14.4z m-16.6-15.7c2.7 2.3 5.1 8.2 5.5 15.8h-5.5v-15.8z m-21.4 20.5h6.3c0.2 5.7 1.5 10.6 3.4 14.4-5.3-2.9-8.9-8.2-9.7-14.4z m6.3-4.8h-6.3c0.8-6.2 4.5-11.4 9.8-14.4-2 3.8-3.2 8.8-3.5 14.4z m10.3 20.6c-2.7-2.3-5.1-8.2-5.5-15.8h5.5v15.8z m0-20.6h-5.5c0.4-7.5 2.8-13.4 5.5-15.8v15.8z m22.8 12.4c1 0 3.1-0.9 3.1-3.6s-2-2.9-2.6-2.9c-1.2 0-2.4 0.9-3.4 2.7-1.1 1.8-2.3 3.9-2.3 3.9h-0.1c-0.2-1.3-0.5-2.4-0.6-2.9-0.2-1.1-1.5-3.6-4.2-3.6s-5.2 1.6-5.2 1.6c-0.5 0.3-0.8 0.8-0.8 1.4 0 0.9 0.7 1.7 1.7 1.7 0.2 0 0.5-0.1 0.7-0.2 0 0 2.1-1.1 2.5 0 0.2 0.3 0.2 0.7 0.4 1.1 0.6 1.8 1 3.9 1.4 5.8l-1.8 2.5s-2-0.7-3-0.7-3.1 0.9-3.1 3.6 2 2.9 2.6 2.9c1.2 0 2.4-0.9 3.4-2.7 1-1.8 2.2-3.9 2.2-3.9 0.3 1.7 0.6 3 0.8 3.6 0.7 1.9 2.2 3.1 4.3 3.1 0 0 2.2 0 4.6-1.4 0.6-0.2 1-0.9 1-1.5 0-0.9-0.7-1.7-1.7-1.7-0.2 0-0.5 0.1-0.7 0.2 0 0-1.8 1-2.4 0.2-0.5-0.8-0.8-1.9-1.1-3.4-0.2-1.2-0.6-2.6-0.9-4.1l1.8-2.6c0.4 0.1 2.4 0.9 3.4 0.9z"></path></svg>

<svg xmlns="http://www.w3.org/2000/svg" x="0px" y="0px"
	 width="52px" height="52px" viewBox="0 0 52 52" enable-background="new 0 0 52 52" xml:space="preserve">
<path fill="#FFFFFF" d="M25,46.5c0-3,1.4-5.2,3.4-6.5v-3c-1-0.7-1.8-1.8-2.2-3c-0.4-1.7,0.2-3.6,1.2-5c0.2-0.3,0.6-0.6,0.9-1
	c0.3-0.3,0.7-0.6,1.1-0.7c2.1-1.1,4.5-1.9,6.9-1.9c2.2,0,4.1,0.9,5.4,2.2c1.9-1.9,3.9-2.3,5.1-2.3c1.1,0,2.2,0.2,3.1,0.7
	c0-0.1,0-0.1,0-0.2C50,12.8,39.2,2,26,2S2,12.8,2,26C2,39.2,12.7,50,25.8,50C25.3,49,25,47.9,25,46.5z M45,23.6h-6.3
	C38.5,18,37.2,13,35.3,9.2C40.6,12.2,44.2,17.5,45,23.6z M28.4,7.9c2.7,2.3,5.1,8.2,5.5,15.8h-5.5V7.9z M7,28.4h6.3
	c0.2,5.7,1.5,10.6,3.4,14.4C11.4,39.9,7.8,34.6,7,28.4z M13.3,23.6H7c0.8-6.2,4.5-11.4,9.8-14.4C14.8,13,13.6,18,13.3,23.6z
	 M23.6,44.2c-2.7-2.3-5.1-8.2-5.5-15.8h5.5V44.2z M23.6,23.6h-5.5c0.4-7.5,2.8-13.4,5.5-15.8V23.6z"/>
<g>
	<path fill="#FFFFFF" d="M46.4,36c1,0,3.1-0.9,3.1-3.6c0-2.7-2-2.9-2.6-2.9c-1.2,0-2.4,0.9-3.4,2.7c-1.1,1.8-2.3,3.9-2.3,3.9h-0.1
		c-0.2-1.3-0.5-2.4-0.6-2.9c-0.2-1.1-1.5-3.6-4.2-3.6c-2.7,0-5.2,1.6-5.2,1.6l0,0c-0.5,0.3-0.8,0.8-0.8,1.4c0,0.9,0.7,1.7,1.7,1.7
		c0.2,0,0.5-0.1,0.7-0.2l0,0c0,0,2.1-1.1,2.5,0c0.2,0.3,0.2,0.7,0.4,1.1c0.6,1.8,1,3.9,1.4,5.8l-1.8,2.5c0,0-2-0.7-3-0.7
		c-1,0-3.1,0.9-3.1,3.6c0,2.7,2,2.9,2.6,2.9c1.2,0,2.4-0.9,3.4-2.7c1-1.8,2.2-3.9,2.2-3.9c0.3,1.7,0.6,3,0.8,3.6
		c0.7,1.9,2.2,3.1,4.3,3.1c0,0,2.2,0,4.6-1.4c0.6-0.2,1-0.9,1-1.5c0-0.9-0.7-1.7-1.7-1.7c-0.2,0-0.5,0.1-0.7,0.2l0,0
		c0,0-1.8,1-2.4,0.2c-0.5-0.8-0.8-1.9-1.1-3.4c-0.2-1.2-0.6-2.6-0.9-4.1l1.8-2.6C43.4,35.2,45.4,36,46.4,36z"/>
</g>
</svg>
